X: 27060
T: Miss Jane MacInnes-Dandeleith
R: reel
M: 4/4
K: Dmajor
FE|:D2DF ABdf|D2DF EDB,A,|D2DF ABdf|1 gbaf dBAF:|2 gbaf dABd||
gbfa efdA|g>f e>dB2df|gbfa efdA|B<d A>FD2Af|
gbfa efdA|g>f e>dB2Af|gf{f}ed ecdA|B<d A>FD2FE||

